products/org.csstudio.iter.css.product/SymbolLibrary_full_hd/SVG/Fluid/Filters/FI Bag Filter-Cartridge Filter for Gases.svg

<?xml version="1.0" encoding="UTF-8" standalone="no"?>
<!--
/*******************************************************************************
* Copyright (c) 2010-2016 ITER Organization.
* All rights reserved. This program and the accompanying materials
* are made available under the terms of the Eclipse Public License v1.0
* which accompanies this distribution, and is available at
* http://www.eclipse.org/legal/epl-v10.html
******************************************************************************/
-->
<!-- Generated by Microsoft Visio 11.0, SVG Export, v1.0 FL_EF150204.svg Page-1 -->

<svg
   xmlns:v="http://schemas.microsoft.com/visio/2003/SVGExtensions/"
   xmlns:dc="http://purl.org/dc/elements/1.1/"
   xmlns:cc="http://creativecommons.org/ns#"
   xmlns:rdf="http://www.w3.org/1999/02/22-rdf-syntax-ns#"
   xmlns:svg="http://www.w3.org/2000/svg"
   xmlns="http://www.w3.org/2000/svg"
   xmlns:sodipodi="http://sodipodi.sourceforge.net/DTD/sodipodi-0.dtd"
   xmlns:inkscape="http://www.inkscape.org/namespaces/inkscape"
   width="34"
   height="54"
   viewBox="0 0 27.19997 43.200008"
   xml:space="preserve"
   color-interpolation-filters="sRGB"
   class="st5"
   id="svg2"
   version="1.1"
   inkscape:version="0.48.2 r9819"
   sodipodi:docname="FL_EF150204.svg"
   style="font-size:12px;fill:none;stroke-linecap:square;stroke-miterlimit:3;overflow:visible"><metadata
   id="metadata69"><rdf:RDF><cc:Work
       rdf:about=""><dc:format>image/svg+xml</dc:format><dc:type
         rdf:resource="http://purl.org/dc/dcmitype/StillImage" /></cc:Work></rdf:RDF></metadata><defs
   id="defs67">
		
		<v:pageProperties
   v:shadowOffsetY="-8.50394"
   v:shadowOffsetX="8.50394"
   v:drawingUnits="24"
   v:pageScale="0.0393701"
   v:drawingScale="0.0393701" />
		
		
	
			
			
			
		
			
			
			
		
				
				
				
			
				
				
			
				
				
			
				
				
			
					
					
					
					
				
					
					
					
					
					
					
				
						
						
					
						
						
					
						
						
					</defs><sodipodi:namedview
   pagecolor="#ffffff"
   bordercolor="#666666"
   borderopacity="1"
   objecttolerance="10"
   gridtolerance="10"
   guidetolerance="10"
   inkscape:pageopacity="0"
   inkscape:pageshadow="2"
   inkscape:window-width="1366"
   inkscape:window-height="716"
   id="namedview65"
   showgrid="true"
   inkscape:zoom="14.385998"
   inkscape:cx="33.979208"
   inkscape:cy="33.428143"
   inkscape:window-x="-8"
   inkscape:window-y="-8"
   inkscape:window-maximized="1"
   inkscape:current-layer="svg2"
   fit-margin-top="0"
   fit-margin-left="0"
   fit-margin-right="0"
   fit-margin-bottom="0"><inkscape:grid
     type="xygrid"
     id="grid3118"
     empspacing="5"
     visible="true"
     enabled="true"
     snapvisiblegridlinesonly="true" /></sodipodi:namedview>
	<v:documentProperties
   v:langID="1036"
   v:metric="true"
   v:viewMarkup="false" />
	<style
   type="text/css"
   id="style4">
	
		.st1 {fill:#ffffff;stroke:none;stroke-linecap:round;stroke-linejoin:round;stroke-width:0.72}
		.st2 {fill:none}
		.st3 {stroke:#000000;stroke-linecap:round;stroke-linejoin:round;stroke-width:0.72}
		.st4 {stroke:#000000;stroke-dasharray:5.04,3.6;stroke-linecap:round;stroke-linejoin:round;stroke-width:0.72}
		.st5 {fill:none;fill-rule:evenodd;font-size:12;overflow:visible;stroke-linecap:square;stroke-miterlimit:3}
	
	</style>
	<g
   id="g3283"
   transform="translate(0,-0.11081496)"><rect
     x="-1.7910021e-005"
     y="0.094870552"
     width="0.0159449"
     height="0.0159449"
     class="st1"
     id="rect16"
     style="fill:#ffffff;stroke:none" /><rect
     x="27.199976"
     y="43.29488"
     width="0.0159449"
     height="0.0159449"
     class="st1"
     id="rect21"
     style="fill:#ffffff;stroke:none" /><rect
     x="0.989878"
     y="0.37024504"
     width="25.511801"
     height="42.519699"
     class="st1"
     id="rect29"
     style="fill:#ffffff;stroke:none" /><path
     style="fill:none"
     inkscape:connector-curvature="0"
     id="path37"
     class="st2"
     d="m 0.9898784,42.894415 0,-42.5200002 25.5099996,0 0,42.5200002 -25.5099996,0 z" /><path
     style="stroke:#000000;stroke-width:0.72000003;stroke-linecap:round;stroke-linejoin:round"
     inkscape:connector-curvature="0"
     id="path39"
     class="st3"
     d="m 26.499878,34.384415 -12.9,8.51 -12.6099996,-8.51" /><path
     style="stroke:#000000;stroke-width:0.72000003;stroke-linecap:round;stroke-linejoin:round"
     inkscape:connector-curvature="0"
     id="path41"
     class="st3"
     d="m 0.9898784,42.894415 0,-42.5200002 25.5099996,0 0,42.5200002 -25.5099996,0" /><path
     style="stroke:#000000;stroke-width:0.72000003;stroke-linecap:round;stroke-linejoin:round"
     inkscape:connector-curvature="0"
     id="path43"
     class="st3"
     d="m 9.4898784,8.8744148 -8.5,0" /><path
     style="stroke:#000000;stroke-width:0.72000003;stroke-linecap:round;stroke-linejoin:round"
     inkscape:connector-curvature="0"
     id="path45"
     class="st3"
     d="m 17.999878,8.8744148 8.5,0" /><path
     d="m 17.993318,8.8741148 0,17.0100002"
     class="st4"
     id="path53"
     inkscape:connector-curvature="0"
     style="stroke:#000000;stroke-width:0.72000003;stroke-linecap:round;stroke-linejoin:round;stroke-dasharray:5.04, 3.6" /><path
     d="m 9.4893184,8.8741148 0,17.0100002"
     class="st4"
     id="path58"
     inkscape:connector-curvature="0"
     style="stroke:#000000;stroke-width:0.72000003;stroke-linecap:round;stroke-linejoin:round;stroke-dasharray:5.04, 3.6" /><path
     d="m 9.4938184,25.886515 8.4999996,0"
     class="st3"
     id="path63"
     inkscape:connector-curvature="0"
     style="stroke:#000000;stroke-width:0.72000003;stroke-linecap:round;stroke-linejoin:round" /></g>
</svg>

<?xml version="1.0" encoding="UTF-8"?>
<!--
/*******************************************************************************
* Copyright (c) 2010-2017 ITER Organization.
* All rights reserved. This program and the accompanying materials
* are made available under the terms of the Eclipse Public License v1.0
* which accompanies this distribution, and is available at
* http://www.eclipse.org/legal/epl-v10.html
******************************************************************************/
-->
<svg xmlns="http://www.w3.org/2000/svg" xmlns:xlink="http://www.w3.org/1999/xlink" width="29pt" height="45pt" viewBox="0 0 29 45" version="1.1">
<g id="surface1">
<path style=" stroke:none;fill-rule:evenodd;fill:rgb(100%,100%,100%);fill-opacity:1;" d="M 1.050781 0.273438 L 28.144531 0.273438 L 28.144531 44.671875 L 1.050781 44.671875 Z M 1.050781 0.273438 "/>
<path style="fill:none;stroke-width:0.72;stroke-linecap:round;stroke-linejoin:round;stroke:rgb(0%,0%,0%);stroke-opacity:1;stroke-miterlimit:3;" d="M 26.501132 34.383482 L 13.601822 42.893667 L 0.989408 34.383482 " transform="matrix(1.062012,0,0,1.044245,0.0000186049,-0.115718)"/>
<path style="fill:none;stroke-width:0.72;stroke-linecap:round;stroke-linejoin:round;stroke:rgb(0%,0%,0%);stroke-opacity:1;stroke-miterlimit:3;" d="M 0.989408 42.893667 L 0.989408 0.376408 L 26.501132 0.376408 L 26.501132 42.893667 L 0.989408 42.893667 " transform="matrix(1.062012,0,0,1.044245,0.0000186049,-0.115718)"/>
<path style="fill:none;stroke-width:0.72;stroke-linecap:round;stroke-linejoin:round;stroke:rgb(0%,0%,0%);stroke-opacity:1;stroke-miterlimit:3;" d="M 9.489638 8.87537 L 0.989408 8.87537 " transform="matrix(1.062012,0,0,1.044245,0.0000186049,-0.115718)"/>
<path style="fill:none;stroke-width:0.72;stroke-linecap:round;stroke-linejoin:round;stroke:rgb(0%,0%,0%);stroke-opacity:1;stroke-miterlimit:3;" d="M 18.000902 8.87537 L 26.501132 8.87537 " transform="matrix(1.062012,0,0,1.044245,0.0000186049,-0.115718)"/>
<path style="fill:none;stroke-width:0.72;stroke-linecap:round;stroke-linejoin:round;stroke:rgb(0%,0%,0%);stroke-opacity:1;stroke-dasharray:5.04,3.6;stroke-miterlimit:3;" d="M 17.993546 8.87163 L 17.993546 25.884519 " transform="matrix(1.062012,0,0,1.044245,0.0000186049,-0.115718)"/>
<path style="fill:none;stroke-width:0.72;stroke-linecap:round;stroke-linejoin:round;stroke:rgb(0%,0%,0%);stroke-opacity:1;stroke-dasharray:5.04,3.6;stroke-miterlimit:3;" d="M 9.489638 8.87163 L 9.489638 25.884519 " transform="matrix(1.062012,0,0,1.044245,0.0000186049,-0.115718)"/>
<path style="fill:none;stroke-width:0.72;stroke-linecap:round;stroke-linejoin:round;stroke:rgb(0%,0%,0%);stroke-opacity:1;stroke-miterlimit:3;" d="M 9.493316 25.884519 L 17.993546 25.884519 " transform="matrix(1.062012,0,0,1.044245,0.0000186049,-0.115718)"/>
</g>
</svg>
